X: 134
T: Far away
T: Wild Asparagus
T: Up Down And Around
M: 3/4
L: 1/8
C:Pete Jung
R: waltz
K:Bmin
FA |: "Bm"B2 BA Bd |"Fism"cA F2 FA |"Bm"B2 BA Be |"Fism"c4 dc |
"Bm"B3A Bd |"Fism"cA F2 de |"D"fe dc  BA |1"Bm"B3 AFA  :|2"Bm"B3 cde ||
|: "D"f2 fe fa |"A"ec A2 de |"D"f2 fe (3fga |"A"e4 de |
"Bm"fd B"A"e cA |"G"dB G"A"c AE |"Bm"F2 B2 Ac |1"Bm"B3 c de:|2B3 A |]


